!!!COM: Ernest Chausson
!!!CNT: Francais
!!!TXO: Francais
!!!OTL: Amour d'antan
!!!OPS: Op. 8
!!!ONM: No. 2
!!!LYR: Maurice Bouchor
!!!ENC: Jacob Pegg
!!!YOR: 20 Songs for Voice and Piano, International Music Company, New York City, January, 1952
!!!ODT: 1882
!!NB: Vocal melody and text only encoded.
**kern	**silbe
*clef G2	*
*k[b-e-a-]	*
*M3/8	*
=2	=2
8r	.
8r	.
{16g	{Mon
16g	a-
=3	=3
16g	-mour
16d	d'an-
[8d	-tan,
16d]	|
16r	.
=4	=4
8r	.
16r	.
16c	vous
24c	sou-
24c	-ven-
24e-	-ez~
=5	=5
4.g}	~vous?}
=8	=8
8r	.
8r	.
{8g	{Nos
=9	=9
4cc	coeurs
16b-	ont
16b-	fleu-
=10	=10
4.a-	-ri
=11	=11
8.g	tout
16g	com-
16f	-me
16e-	deux
=12	=12
8d	ro-
8d}	-ses}
16r	.
{16d	{Au
=13	=13
8f	vent
8f	prin-
8e-	-ta-
=14	=14
4d	-nier
16c	des
16B-	bai-
=15	=15
4a-	-sers
8g	si
=16	=16
4.g}	doux}
=19	=19
{16g	{Vous
16g	sou-
16en	-ve-
16g	-nez~
[8g	~vous
=20	=20
8g]	|
8d	de
8d	ces
=21	=21
(8e-	vieil-
8f)	|
8g	-les
=22	=22
4g-	cho-
[8g-	-ses?
=23	=23
8g-]}	|}
8r	.
8r	.
=27	=27
8r	.
{8g-	{Voy-
8g-	-ez~
=28	=28
4a-	~vous
8b--	tou-
=29	=29
[4.a-	-jours
=30	=30
8a-]	|
8e-	en
8e-	vos
=31	=31
4a-	son-
8f	-ges
=32	=32
4.a-}	d'or}
=33	=33
*M4/8	*
{8g	{Les
8g	ho-
8b-	-ri-
8a-	-zons
=34	=34
4.g	bleus,
8g	la
=35	=35
*M3/8	*
4g-	mer
16a-	sol-
16b-	-eil-
=35	=35
4dd-	-leu-
8dd-}	-se}
=36	=36
{8.cc	{Qui
16cc	bai-
16an	-sant
16f#	vos
=37	=37
4.fn	pieds
=38	=38
8r	.
8f	len-
8f	-te-
=39	=39
4a-	-ment
8c	s'en-
=40	=40
4.f}	-dort?}
=45	=45
8r	.
8r	.
{16f	{En
16f	vos
=46	=46
16an	son-
16an	-ges
[4f	d'or
=47	=47
8f]	|
8r	.
8f	peut
=48	=48
4bn	e^tre
16bn	ou-
16bn	-bli-
=49	=49
[4.dd	-eu-
=50	=50
4dd]	|
[8g	-se?
=51	=51
4g]}	|}
8r	.
=52	=52
8r	.
{8g	{Au
8g	ray-
=53	=53
4cc	-on
8b-	pa^-
=54	=54
4g	-li
16g	des
16g	a-
=55	=55
4cc	-vrils
8g	pas-
=56	=56
4.g}	-se/s}
=57	=57
8r	.
{8b-	{Sen-
8a-	-tez~
=58	=58
4g	~vous
8e-	s'ou-
=59	=59
8.d	-vrir
16c	la
24c	fleur
24d	de
24e-	vos
=60	=60
4g	re^-
[8f	-ves,
=61	=61
8f]}	|}
8r	.
{8a-	{Bou-
=62	=62
4dd	-quet
16cc	d'o-
16b-	-do-
=63	=63
8a-	-rants
16g	et
16f	de
16e-	frais
16d	pen-
=64	=64
[4.a-	-sers?
=65	=65
8a-]}	|}
8r	.
8r	.
=66	=66
8r	.
{8g	{Beaux
8g	av-
=67	=67
4b-	-rils
8a-	pas-
=68	=68
16g	-se/es
16e-	la\~
[4e-	~bas,
=69	=69
8e-]	|
8f	sur
8g	les
=70	=70
4.g	gre\-
=71	=71
[4.g	-ves!
=73	=73
8g]}	|}
8r	.
8r	.
*-	*-
